X:1
T:Golden Chain, 87.87.887
T:Golden Chain, 87.87.887
T:Joseph Barnby, 1887
T:Public Domain Courtesy of the Cyber Hymnal™
C:Joseph Barnby, 1887
Z:Public Domain
Z:Courtesy of the Cyber Hymnal™
%%score ( 1 2 ) ( 3 4 )
L:1/8
Q:1/4=108
M:4/4
K:D
V:1 treble 
V:2 treble 
V:3 bass 
V:4 bass 
V:1
 [DF]2 | [DF]3 [DF] [DF]2 [DF]2 | [FA]3 [FA] [FA]2 [FA]2 | [Gd]2 [DB]2 [DG]2 [DB]2 | %4
 [DA]4 [DA]2 [DF]2 | [CE]3 [CE] D2 [DA]2 | G3 z G [DF]2 [FB]2 | [FA]2 (^GF) [^Ec]2 (GA) | %8
 [^E^G]4 F2 [CA]2 | A3 z B [DA]2 [EG]2 | F2 [CG]2 [DA]2 [FA]2 | B3 z =c [EB]2 [FA]2 | %12
 [EG]2 [FA]2 [GB]2 c2 | [Dd]2 [=CD]2 [B,D]2 [B,G]2 | [CE]4 D2 |] %15
V:2
 x2 | x8 | x8 | x8 | x8 | x4 D2 x2 | D2 C2 x5 | x2 C2 x ^E2 x | x4 F2 x2 | C2 C2 x5 | F2 x6 | %11
 F2 ^D2 x5 | x6 (FE) | x8 | x4 D2 |] %15
V:3
 [D,A,]2 | [D,A,]3 [D,A,] [D,A,]2 [D,A,]2 | [D,=C]3 [D,C] [D,C]2 [D,C]2 | %3
 [G,,B,]2 [G,,G,]2 [B,,D,]2 [G,,G,]2 | [D,F,]4 [D,F,]2 [F,A,]2 | [G,A,]3 [G,A,] [F,A,]2 [F,A,]2 | %6
 [E,B,]2 A,2 [D,A,]2 [B,,D]2 x | [C,C]2 [C,A,]2 [C,^G,]2 [C,B,]2 | [F,B,]4 [F,A,]2 F,2 | %9
 [E,G,]2 [A,,G,]2 [B,,F,]2 [C,E,]2 x | [D,A,]2 [E,A,]2 [F,D]2 [E,=C]2 | %11
 [^D,B,]2 [B,,A,]2 [C,G,]2 [D,F,]2 x | [E,B,]2 [E,A,]2 [E,G,]2 (A,G,) | %13
 [B,,F,]2 [F,A,]2 G,2 [E,G,]2 | [A,,G,]4 [D,F,]2 |] %15
V:4
 x2 | x8 | x8 | x8 | x8 | x8 | x2 A,2 x5 | x8 | x6 F,2 | x9 | x8 | x9 | x6 A,,2 | x4 G,2 x2 | x6 |] %15

